X: 316
T:Seamus Connolly's
R:Reel
S:Fisher Street
H:
N:
D:Fisher Street: Out in the Night
Z:Adrian Scahill
M:4/4
L:1/8
K:D
A3B AFFA|d2cd BGGB|(3ABA FA dcdf|eBBA BcdB|\
AFBF ADFA|BdcA G3B|(3ABA FA dcdf|1 edcB cAdB:|2 edcB cAde||\
fdd2 geag|(3fgf df edcA|defa g3b|afdf efde|\
fdd2 geag|(3fgf df edcB|(3ABA FA dcdf|eBBA Bcde:||
<end>
<start>
